!!!OTL: Der geistliche Vogelgesang.
!!!ARE: Europa, Mitteleuropa, Deutschland
!!!SCT: A0655
!!!TXL: @@DE
!!!YEM: Copyright 1995, estate of Helmut Schaffrath.
**kern	**text
*M4/4	*
*met(c|)	*
*clefC1	*
*k[]	*
*G:	*
=1	=1
4ryy	.
{4b	Wol-
4dd	-auff
4cc	jhr
=2	=2
4cc	klein
4b	Wald-
4b	-vö-
4a	-ge-
=3	=3
4a	-lein,
4b	auch
4cc	was
4b	in
=4	=4
4b	lüff-
4a	-ten
2g}	ſchwebt,
=5	=5
{4r	.
4b	Stimt
4dd	an,
4cc	lobt
=6	=6
4cc	Gott
4b	den
4b	Her-
4a	-ren
=7	=7
4a	mein,
4b	ſingt
4cc	all,
4b	die
=8	=8
4b	ſtim
4a	er
2g	hebt.
=9	=9
4r}	.
{4d	dann
4e	Gott
4f#	hat
=10	=10
4g	euch
4a	er-
2b	-ſchaf-
=11	=11
4a	-fen,
4b	ʒu
4cc	ſei-
4b	-nem
=12	=12
4a	lob
4g	vnd
2a	ehr,
=13	=13
4r}	.
{4b	gſang,
4dd	fe-
4g	-der,
=14	=14
4cc	ſchna-
4b	-bel,
2a	waf-
=15	=15
4a	-fen,
4b	kombt
4cc	al-
4b	-les
=16	=16
4b	von
4a	jhm
2;g}	her.
==	==
!!!GTL: Geistliche Volkslieder
!!!AGN: Romanze, Ballade, Lied, religioeses Lied
!! Muenchen 1642
!!!ONB: ESAC (Essen Associative Code) Database: ALTDEU
!!!AMT: simple quadruple
!!!AIN: vox
!!!EED: Helmut Schaffrath
!!!EEV: 1.0
!!!URL-scan: https://rosdok.uni-rostock.de/mcrviewer/recordIdentifier/rosdok_ppn738218359/iview2/phys_0835.iview2?x=-495.6391625615763&y=540.456650226377&scale=0.4629418472063854&rotation=0&layout=singlePageLayout
!!!ENC: Anna Maria Matuszewska
!!!EEV: 2024/26/03
*-	*-
